X:1
T:Fresh Air
C:copyright 1997 Kaubells
E:14                   % note spacing
M:C
K:DMix
|:{b}"D"agfe dfBd|"C"e2c2c2de|"Am"gz de g2b2|{ab}"D"agfg a2d2|
{b}"D"agfe dfBd|"C"e2c2c2de|"Am"gz e2 A2 ze|"D"d6 z2:|
|:"D"fe"A"fg "C"aecA|"B7"B4 z2 B2|"Em"e2E2E2GE|(3A"A7"BA GE AB^cA|
"D"fe"A"fg "C"ae=cA|"B7"B4 z2 B2|"Em"e2E2E2GE|"A7"AB^c2d4:|
